X:5986
T:Shenandoah
T:Sea shanty
O:england
C:canon.
R:shanty
M:C
L:1/8
K:D
"solo"A,2|"D"DDD3EFG|\
M:3/4
"G"B "D"A3"chorus"(dc)|"G"B3A BA|
w:
w:Oh, She-nan-doah, I long to hear you A-way you roll-ing
"D"FA3 "solo"A2|\
M:C
"Bm"BBB3F "D"AF|\
M:3/4
"A7"E "Bm"D3"chorus"E2|
w:
w:ri-ver. Oh, She-nan-doah, I long to hear you A-
"D"F3E F>B|"D"A6|"D"D>EF3E|"A7"E2"D"D2|]
w:
w:way I'm bound to go 'cross the wide Mis-sou-ri.
W:
W:Oh, Shenandoah, I long to hear you
W:  Away you rolling river.
W:Oh, Shenandoah, I long to hear you
W:  Away I'm bound to go 'cross the wide Missouri.
W:
W:Oh, Shenandoah, I love your daughter,
W:Oh, Shenandoah, I love your daughter.
W:
W:Oh, Shenandoah, I'm bound to leave you,
W:Oh, Shenandoah, I'll not deceive you.
W:
W:Oh, Shenandoah, I long to hear you,
W:Oh, Shenandoah, I long to hear you.


